X:1
T:Calum Donaldson
R:March
C:Ronnie Cooper
Z:transcribed by Ted Hastings
M:2/4
L:1/16
K:A
EAAG ABcd|eAcA eAcA|Bf‑fe f2‑fg|afec BdcA|!
EAAG ABcd|eAcA eAcA|Bf‑fe fgaf|1ecBc A2fg:|2ecBc A2AF||!
agab agfe|fgaf ecBA|Bf‑fe f2‑fg|afec Befg|!
[1agab agfe|fgaf ecBA|Bf‑fe f2gf|ecBc A2eg:|!
[2EAAG ABcd|eAcA eAcA|Bf‑fe fgaf|ecBc A2AF||

